icons/1_Primary/Battle.net.svg

<svg width="1024" height="1024" viewBox="0 0 1024 1024" fill="none" xmlns="http://www.w3.org/2000/svg">
<g clip-path="url(#clip0_2_1569)">
<path d="M512 1024C794.77 1024 1024 794.77 1024 512C1024 229.23 794.77 0 512 0C229.23 0 0 229.23 0 512C0 794.77 229.23 1024 512 1024Z" fill="#9ABEFF"/>
<path d="M660.17 432.929C595.39 402.929 502.17 383.929 414.53 391.019C418.88 362.019 429.81 341.769 447.53 337.499C472.03 331.609 498.74 347.739 524.18 377.019C540.82 379.149 560.63 383.019 574.45 386.149C528 298.839 465.74 249.929 418.37 267.999C382.37 281.739 363.92 331.329 366.13 397.999C319.19 407.999 282.57 425.739 259.13 451.259C257.94 452.629 255.29 456.129 256.23 457.749C257 459.029 259.3 457.579 260.41 456.899C287.55 437.899 322.41 427.619 367.7 421.139C374.19 492.239 404.23 582.449 454.25 654.829C426.94 665.579 403.98 666.269 391.43 652.949C374.1 634.679 374.7 603.449 387.33 566.739C380.84 551.209 374.27 532.169 370.17 518.689C317.59 602.589 306.33 681.029 345.67 713.039C375.67 737.369 427.78 728.569 484.37 693.319C516.46 728.999 550.18 751.789 583.98 759.319C585.77 759.659 590.13 760.259 591.06 758.639C591.83 757.359 589.35 755.989 588.24 755.479C558.24 741.479 531.91 716.479 503.66 680.479C562 639.309 625.09 568.129 662.73 488.659C685.73 507.009 697.73 526.469 692.52 544.049C685.35 568.199 658.04 583.309 619.89 590.649C609.65 604.049 596.5 619.239 586.89 629.569C685.73 632.979 759.3 603.569 767.32 553.569C773.47 515.499 739.67 474.699 680.86 443.299C695.71 397.639 698.61 357.089 688.2 324.059C687.6 322.349 685.98 318.259 684.02 318.259C682.57 318.259 682.57 321.079 682.65 322.259C685.72 355.209 677.27 390.539 660.2 432.959L660.17 432.929ZM478.11 643.489C436.29 576.399 412.22 497.369 412.3 417.489C491.3 414.839 571.82 433.489 640.96 473.569C603.75 543.289 547.42 603.719 478.11 643.489Z" fill="white"/>
</g>
<defs>
<clipPath id="clip0_2_1569">
<rect width="1024" height="1024" fill="white"/>
</clipPath>
</defs>
</svg>

<svg xmlns="http://www.w3.org/2000/svg" width="1024" height="1024" fill="none">
   <g clip-path="url(#a)">
      <path fill="#9ABEFF" d="M512 1024c282.77 0 512-229.23 512-512S794.77 0 512 0 0 229.23 0 512s229.23 512 512 512Z"/>
      <path fill="#fff" d="M660.17 432.929c-64.78-30-158-49-245.64-41.91 4.35-29 15.28-49.25 33-53.52 24.5-5.89 51.21 10.24 76.65 39.52 16.64 2.13 36.45 6 50.27 9.13-46.45-87.31-108.71-136.22-156.08-118.15-36 13.74-54.45 63.33-52.24 130-46.94 10-83.56 27.74-107 53.26-1.19 1.37-3.84 4.87-2.9 6.49.77 1.28 3.07-.17 4.18-.85 27.14-19 62-29.28 107.29-35.76 6.49 71.1 36.53 161.31 86.55 233.69-27.31 10.75-50.27 11.44-62.82-1.88-17.33-18.27-16.73-49.5-4.1-86.21-6.49-15.53-13.06-34.57-17.16-48.05-52.58 83.9-63.84 162.34-24.5 194.35 30 24.33 82.11 15.53 138.7-19.72 32.09 35.68 65.81 58.47 99.61 66 1.79.34 6.15.94 7.08-.68.77-1.28-1.71-2.65-2.82-3.16-30-14-56.33-39-84.58-75 58.34-41.17 121.43-112.35 159.07-191.82 23 18.35 35 37.81 29.79 55.39-7.17 24.15-34.48 39.26-72.63 46.6-10.24 13.4-23.39 28.59-33 38.92 98.84 3.41 172.41-26 180.43-76 6.15-38.07-27.65-78.87-86.46-110.27 14.85-45.66 17.75-86.21 7.34-119.24-.6-1.71-2.22-5.8-4.18-5.8-1.45 0-1.45 2.82-1.37 4 3.07 32.95-5.38 68.28-22.45 110.7l-.03-.03Zm-182.06 210.56c-41.82-67.09-65.89-146.12-65.81-226 79-2.65 159.52 16 228.66 56.08-37.21 69.72-93.54 130.15-162.85 169.92Z"/>
   </g>
   <defs>
      <clipPath id="a">
         <path fill="#fff" d="M0 0h1024v1024H0z"/>
      </clipPath>
   </defs>
</svg>
